public/we-up.svg

<svg width="335" height="315" viewBox="0 0 335 315" fill="none" xmlns="http://www.w3.org/2000/svg">
<g clip-path="url(#clip0_11917_54459)">
<rect width="335" height="314.062" rx="18.8438" fill="#2FD566" fill-opacity="0.2"/>
<path d="M303.979 158.288H326.692L254.437 57.5781H212.843L215.063 151.003V309.999L303.829 321.132L303.979 158.288Z" fill="#52B46D"/>
<path d="M303.98 158.289H262.384L261.989 251.523L262.247 324.661L303.83 321.132L303.98 158.289Z" fill="#3E8452"/>
<path d="M262.382 158.288H285.096L212.842 57.5781L152.844 150.574L173.468 151.003V326.619L262.246 341.281L262.382 158.288Z" fill="#51D776"/>
<path d="M103.641 336.047C155.676 336.047 197.859 288.474 197.859 229.789C197.859 171.104 155.676 123.531 103.641 123.531C51.605 123.531 9.42188 171.104 9.42188 229.789C9.42188 288.474 51.605 336.047 103.641 336.047Z" fill="#075430"/>
<path d="M121.438 336.047C173.473 336.047 215.656 288.474 215.656 229.789C215.656 171.104 173.473 123.531 121.438 123.531C69.4019 123.531 27.2188 171.104 27.2188 229.789C27.2188 288.474 69.4019 336.047 121.438 336.047Z" fill="#38C266"/>
<path d="M81.7464 286.398L151.028 177.969H169.504L100.222 286.398H81.7464ZM89.4941 234.637C84.4283 234.637 80.1572 233.447 76.6807 231.068C73.2041 228.589 70.5223 225.217 68.635 220.954C66.8471 216.69 65.9531 211.781 65.9531 206.229C65.9531 200.478 66.9464 195.52 68.933 191.355C70.9196 187.19 73.7008 184.017 77.2766 181.836C80.9518 179.555 85.2229 178.415 90.0901 178.415C95.1558 178.415 99.427 179.654 102.903 182.133C106.38 184.513 109.012 187.835 110.8 192.099C112.588 196.362 113.482 201.221 113.482 206.675C113.482 212.624 112.489 217.681 110.502 221.846C108.516 226.011 105.685 229.184 102.01 231.365C98.4337 233.547 94.2619 234.637 89.4941 234.637ZM89.6431 219.466C90.537 219.466 91.431 219.317 92.325 219.02C93.2189 218.723 93.9142 217.681 94.4109 215.897C95.0068 214.013 95.3048 210.889 95.3048 206.526C95.3048 202.163 95.0068 199.089 94.4109 197.304C93.9142 195.52 93.2189 194.478 92.325 194.181C91.431 193.884 90.537 193.735 89.6431 193.735C88.8485 193.735 88.0042 193.884 87.1102 194.181C86.3156 194.478 85.6203 195.52 85.0243 197.304C84.4283 198.99 84.1303 202.064 84.1303 206.526C84.1303 209.798 84.2793 212.327 84.5773 214.112C84.9746 215.897 85.4216 217.186 85.9182 217.979C86.5142 218.673 87.1102 219.119 87.7062 219.317C88.4015 219.417 89.0471 219.466 89.6431 219.466ZM161.309 286.844C156.243 286.844 151.972 285.604 148.495 283.125C145.019 280.646 142.337 277.275 140.45 273.011C138.662 268.747 137.768 263.889 137.768 258.435C137.768 252.585 138.761 247.577 140.748 243.413C142.834 239.248 145.665 236.075 149.24 233.894C152.916 231.613 157.137 230.473 161.905 230.473C166.971 230.473 171.242 231.712 174.718 234.191C178.195 236.571 180.827 239.893 182.615 244.156C184.403 248.42 185.297 253.279 185.297 258.733C185.297 264.682 184.304 269.789 182.317 274.052C180.33 278.217 177.549 281.39 173.973 283.572C170.398 285.753 166.176 286.844 161.309 286.844ZM161.607 271.524C162.501 271.524 163.345 271.375 164.14 271.078C165.034 270.78 165.729 269.739 166.226 267.954C166.822 266.07 167.12 262.947 167.12 258.584C167.12 254.221 166.822 251.147 166.226 249.362C165.729 247.577 165.034 246.536 164.14 246.239C163.345 245.941 162.501 245.793 161.607 245.793C160.812 245.793 159.968 245.941 159.074 246.239C158.18 246.536 157.435 247.577 156.839 249.362C156.243 251.048 155.945 254.122 155.945 258.584C155.945 262.947 156.243 266.07 156.839 267.954C157.435 269.739 158.18 270.78 159.074 271.078C159.968 271.375 160.812 271.524 161.607 271.524Z" fill="white"/>
<path d="M204.141 262.533L225.677 256.641L249.66 260.507L228.126 265.484L204.141 262.533Z" fill="#D7F7F6"/>
<path d="M204.141 262.533L228.126 265.484V318.102L204.141 314.22V262.533Z" fill="#DCEEED"/>
<path d="M228.125 234.27L252.108 237.221V321.987L228.125 318.102V234.27Z" fill="#C2E1DC"/>
<path d="M252.109 262.533L276.092 265.484V325.809L252.109 321.924V262.533Z" fill="#DCEEED"/>
<path d="M297.627 260.507L276.093 265.484V325.809L297.627 319.918V260.507Z" fill="#63A099"/>
<path d="M252.109 262.533L273.643 256.641L297.626 260.507L276.092 265.484L252.109 262.533Z" fill="#D7F7F6"/>
<path d="M273.643 232.244L252.109 237.221V262.533L273.643 256.64V232.244Z" fill="#63A099"/>
<path d="M228.125 234.27L250.882 229.4L273.642 232.244L252.108 237.221L228.125 234.27Z" fill="#D7F7F6"/>
</g>
<defs>
<clipPath id="clip0_11917_54459">
<rect width="335" height="314.062" rx="18.8438" fill="white"/>
</clipPath>
</defs>
</svg>

<svg xmlns="http://www.w3.org/2000/svg" width="335" height="315" fill="none" viewBox="0 0 335 315"><g clip-path="url(#a)"><rect width="335" height="314.062" fill="#2fd566" fill-opacity=".2" rx="18.844"/><path fill="#52b46d" d="M303.979 158.288h22.713l-72.255-100.71h-41.594l2.22 93.425v158.996l88.766 11.133z"/><path fill="#3e8452" d="M303.98 158.289h-41.596l-.395 93.234.258 73.138 41.583-3.529z"/><path fill="#51d776" d="M262.382 158.288h22.714l-72.254-100.71-59.998 92.996 20.624.429v175.616l88.778 14.662z"/><path fill="#075430" d="M103.641 336.047c52.035 0 94.218-47.573 94.218-106.258s-42.183-106.258-94.218-106.258-94.22 47.573-94.22 106.258 42.184 106.258 94.22 106.258"/><path fill="#38c266" d="M121.438 336.047c52.035 0 94.218-47.573 94.218-106.258s-42.183-106.258-94.218-106.258-94.22 47.573-94.22 106.258 42.184 106.258 94.22 106.258"/><path fill="#fff" d="m81.746 286.398 69.282-108.429h18.476l-69.282 108.429zm7.748-51.761q-7.599 0-12.813-3.569-5.216-3.719-8.046-10.114-2.682-6.397-2.682-14.725 0-8.627 2.98-14.874 2.98-6.248 8.344-9.519 5.512-3.421 12.813-3.421 7.599 0 12.813 3.718 5.215 3.57 7.897 9.966t2.682 14.576q0 8.923-2.98 15.171t-8.492 9.519q-5.364 3.272-12.516 3.272m.15-15.171q1.34 0 2.681-.446 1.342-.446 2.086-3.123.894-2.826.894-9.371 0-6.544-.894-9.222-.745-2.677-2.086-3.123a8.5 8.5 0 0 0-2.682-.446q-1.191 0-2.533.446-1.191.446-2.086 3.123-.894 2.529-.894 9.222 0 4.908.447 7.586.597 2.678 1.341 3.867.894 1.041 1.788 1.338 1.043.15 1.937.149m71.665 67.378q-7.599 0-12.814-3.719t-8.045-10.114q-2.682-6.396-2.682-14.576 0-8.776 2.98-15.022 3.13-6.248 8.492-9.519 5.513-3.421 12.665-3.421 7.599 0 12.813 3.718 5.215 3.57 7.897 9.965 2.682 6.396 2.682 14.577 0 8.924-2.98 15.319-2.98 6.247-8.344 9.52t-12.664 3.272m.298-15.32q1.34 0 2.533-.446 1.34-.447 2.086-3.124.894-2.826.894-9.37t-.894-9.222q-.745-2.678-2.086-3.123a7.2 7.2 0 0 0-2.533-.446q-1.192 0-2.533.446-1.341.445-2.235 3.123-.894 2.529-.894 9.222 0 6.544.894 9.37.894 2.677 2.235 3.124 1.34.446 2.533.446"/><path fill="#d7f7f6" d="m204.141 262.533 21.536-5.892 23.983 3.866-21.534 4.977z"/><path fill="#dceeed" d="m204.141 262.533 23.985 2.951v52.618l-23.985-3.882z"/><path fill="#c2e1dc" d="m228.125 234.27 23.983 2.951v84.766l-23.983-3.885z"/><path fill="#dceeed" d="m252.109 262.533 23.983 2.951v60.325l-23.983-3.885z"/><path fill="#63a099" d="m297.627 260.507-21.534 4.977v60.325l21.534-5.891z"/><path fill="#d7f7f6" d="m252.109 262.533 21.534-5.892 23.983 3.866-21.534 4.977z"/><path fill="#63a099" d="m273.643 232.244-21.534 4.977v25.312l21.534-5.893z"/><path fill="#d7f7f6" d="m228.125 234.27 22.757-4.87 22.76 2.844-21.534 4.977z"/></g><defs><clipPath id="a"><rect width="335" height="314.062" fill="#fff" rx="18.844"/></clipPath></defs></svg>
